icons/1_Primary/Warner Bros. Games.svg

<svg width="1024" height="1024" viewBox="0 0 1024 1024" fill="none" xmlns="http://www.w3.org/2000/svg">
<g clip-path="url(#clip0_2_3882)">
<path d="M512 1024C794.77 1024 1024 794.77 1024 512C1024 229.23 794.77 0 512 0C229.23 0 0 229.23 0 512C0 794.77 229.23 1024 512 1024Z" fill="#728DBE"/>
<path d="M562.91 465.12V339.93C599.44 342.33 626.99 362.1 626.99 386.05C627 411.21 609 438.17 562.91 465.12ZM622.18 475.9C609.62 475.9 598.18 480.71 562.91 505.9V641.23C624.04 572.94 641.41 526.23 641.41 502.23C641.41 485.51 633.56 475.9 622.19 475.9H622.18ZM740.86 391C740.86 563.55 650.99 713.33 516.8 802.59C515.405 803.75 513.763 804.574 512 805C510.234 804.579 508.588 803.758 507.19 802.6C373 713.33 283.14 563.56 283.14 391C283.095 371.504 284.896 352.047 288.52 332.89C289.13 330.49 289.72 329.59 290.92 329.29L334 317.92L340 293.34C340.3 292.15 340.61 291.26 341.81 290.95L386.14 279.05L391.54 255.6C391.561 254.909 391.805 254.243 392.236 253.702C392.667 253.161 393.261 252.775 393.93 252.6L509.1 231.25C510.985 230.914 512.915 230.914 514.8 231.25L630 252.69C630.663 252.876 631.25 253.266 631.679 253.804C632.108 254.343 632.357 255.002 632.39 255.69L637.79 279.06L682.15 291C683.35 291.3 683.66 292.2 683.94 293.39L689.94 317.97L733.08 329.34C734.28 329.64 734.87 330.54 735.47 332.94C739.102 352.079 740.907 371.52 740.86 391ZM495.29 723.2H495.23V302.16C495.262 301.916 495.236 301.667 495.156 301.434C495.076 301.201 494.944 300.99 494.768 300.817C494.593 300.643 494.38 300.513 494.146 300.435C493.913 300.358 493.664 300.336 493.42 300.37C483.335 301.52 473.334 303.317 463.48 305.75C461.08 306.34 460.48 307.54 460.48 309.95L461.7 524.95C461.7 551.95 461.7 574.07 462.9 599.24C462.9 601.03 461.09 601.63 460.5 599.83C438.34 531 428.15 444.71 429.94 320.12C429.94 317.73 429.35 317.12 426.35 318.33C416.363 322.576 406.721 327.591 397.51 333.33C395.72 334.53 395.12 335.72 395.12 338.71C393.33 424.37 400.5 498.64 413.12 554.34L406.54 558.54C404.14 560.33 402.34 560.33 400.54 556.75C379.65 510.04 366.46 438.75 366.46 362.09C366.46 359.09 364.67 357.89 362.87 359.69C353.487 368.28 344.684 377.484 336.52 387.24C335.523 388.271 334.744 389.492 334.229 390.83C333.714 392.169 333.472 393.597 333.52 395.03C335.31 457.32 355.08 545.97 385.62 599.88C389.22 606.46 394.01 608.26 400.04 604.08L422.8 589.66C437.8 639.98 459.93 686.1 492.87 723.83C494.09 725 495.29 724.4 495.29 723.2ZM677.91 495.62C677.91 469.27 667.74 449.5 641.37 442.32C654.866 427.386 662.348 407.979 662.37 387.85C662.37 339.34 610.86 305.79 530.6 300.41C530.356 300.376 530.107 300.398 529.874 300.475C529.64 300.553 529.427 300.683 529.252 300.857C529.076 301.03 528.944 301.241 528.864 301.474C528.783 301.707 528.758 301.956 528.79 302.2V723.2C528.79 724.4 529.99 724.99 531.19 723.79C643.77 619.69 677.91 542.35 677.91 495.62Z" fill="white"/>
</g>
<defs>
<clipPath id="clip0_2_3882">
<rect width="1024" height="1024" fill="white"/>
</clipPath>
</defs>
</svg>

<svg width="1024" height="1024" fill="none" xmlns="http://www.w3.org/2000/svg"><g clip-path="url(#a)"><path d="M512 1024c282.77 0 512-229.23 512-512S794.77 0 512 0 0 229.23 0 512s229.23 512 512 512Z" fill="#728DBE"/><path d="M562.91 465.12V339.93c36.53 2.4 64.08 22.17 64.08 46.12.01 25.16-17.99 52.12-64.08 79.07Zm59.27 10.78c-12.56 0-24 4.81-59.27 30v135.33c61.13-68.29 78.5-115 78.5-139 0-16.72-7.85-26.33-19.22-26.33h-.01ZM740.86 391c0 172.55-89.87 322.33-224.06 411.59A11.865 11.865 0 0 1 512 805a11.847 11.847 0 0 1-4.81-2.4C373 713.33 283.14 563.56 283.14 391a308.792 308.792 0 0 1 5.38-58.11c.61-2.4 1.2-3.3 2.4-3.6L334 317.92l6-24.58c.3-1.19.61-2.08 1.81-2.39l44.33-11.9 5.4-23.45a3.202 3.202 0 0 1 2.39-3l115.17-21.35a16.242 16.242 0 0 1 5.7 0L630 252.69a3.281 3.281 0 0 1 2.39 3l5.4 23.37L682.15 291c1.2.3 1.51 1.2 1.79 2.39l6 24.58 43.14 11.37c1.2.3 1.79 1.2 2.39 3.6a307.434 307.434 0 0 1 5.39 58.06ZM495.29 723.2h-.06V302.16a1.598 1.598 0 0 0-1.81-1.79 236.853 236.853 0 0 0-29.94 5.38c-2.4.59-3 1.79-3 4.2l1.22 215c0 27 0 49.12 1.2 74.29 0 1.79-1.81 2.39-2.4.59-22.16-68.83-32.35-155.12-30.56-279.71 0-2.39-.59-3-3.59-1.79a209.66 209.66 0 0 0-28.84 15c-1.79 1.2-2.39 2.39-2.39 5.38-1.79 85.66 5.38 159.93 18 215.63l-6.58 4.2c-2.4 1.79-4.2 1.79-6-1.79-20.89-46.71-34.08-118-34.08-194.66 0-3-1.79-4.2-3.59-2.4a287.5 287.5 0 0 0-26.35 27.55 10.686 10.686 0 0 0-3 7.79c1.79 62.29 21.56 150.94 52.1 204.85 3.6 6.58 8.39 8.38 14.42 4.2l22.76-14.42c15 50.32 37.13 96.44 70.07 134.17 1.22 1.17 2.42.57 2.42-.63Zm182.62-227.58c0-26.35-10.17-46.12-36.54-53.3a81.373 81.373 0 0 0 21-54.47c0-48.51-51.51-82.06-131.77-87.44a1.597 1.597 0 0 0-1.736 1.064 1.585 1.585 0 0 0-.074.726v421c0 1.2 1.2 1.79 2.4.59 112.58-104.1 146.72-181.44 146.72-228.17Z" fill="#fff"/></g><defs><clipPath id="a"><path fill="#fff" d="M0 0h1024v1024H0z"/></clipPath></defs></svg>
